src/icons/chakraui.svg

<svg width="60" height="60" viewBox="0 0 60 60" fill="none" xmlns="http://www.w3.org/2000/svg">
<g clip-path="url(#clip0_173_302)">
<mask id="mask0_173_302" style="mask-type:luminance" maskUnits="userSpaceOnUse" x="0" y="0" width="60" height="60">
<path d="M60 0H0V60H60V0Z" fill="white"/>
</mask>
<g mask="url(#mask0_173_302)">
<path d="M30 60C46.5685 60 60 46.5685 60 30C60 13.4315 46.5685 0 30 0C13.4315 0 0 13.4315 0 30C0 46.5685 13.4315 60 30 60Z" fill="white"/>
<path d="M30 0C13.38 0 0 13.38 0 30C0 46.62 13.38 60 30 60C46.62 60 60 46.62 60 30C60 13.38 46.62 0 30 0ZM37 10.8325C37.325 10.8225 37.62 11.1725 37.4275 11.5275L29.8175 25.4775C29.779 25.5486 29.7596 25.6285 29.7613 25.7094C29.7629 25.7902 29.7854 25.8693 29.8268 25.9388C29.8681 26.0083 29.9267 26.066 29.9969 26.106C30.0672 26.1461 30.1466 26.1673 30.2275 26.1675H43.3775C43.8025 26.1675 44.0075 26.685 43.6975 26.975L20.6475 48.4875C20.235 48.8725 19.6225 48.33 19.9525 47.8725L30.8625 32.82C30.9125 32.7503 30.9424 32.6682 30.9488 32.5827C30.9553 32.4971 30.9381 32.4115 30.8991 32.3351C30.8601 32.2586 30.8009 32.1944 30.7278 32.1494C30.6548 32.1045 30.5708 32.0804 30.485 32.08H16.5675C16.4749 32.0798 16.3845 32.0521 16.3076 32.0004C16.2308 31.9487 16.1711 31.8753 16.136 31.7896C16.1009 31.7039 16.0921 31.6097 16.1106 31.519C16.1291 31.4283 16.1741 31.3451 16.24 31.28L36.69 10.9725C36.772 10.8869 36.8816 10.8367 37 10.8325Z" fill="#319795"/>
</g>
</g>
<defs>
<clipPath id="clip0_173_302">
<rect width="60" height="60" fill="white"/>
</clipPath>
</defs>
</svg>

<svg xmlns="http://www.w3.org/2000/svg" width="60" height="60" fill="none"><g clip-path="url(#a)"><mask id="b" width="60" height="60" x="0" y="0" maskUnits="userSpaceOnUse" style="mask-type:luminance"><path fill="#fff" d="M60 0H0v60h60V0Z"/></mask><g mask="url(#b)"><path fill="#fff" d="M30 60c16.569 0 30-13.431 30-30C60 13.431 46.569 0 30 0 13.431 0 0 13.431 0 30c0 16.569 13.431 30 30 30Z"/><path fill="#319795" d="M30 0C13.38 0 0 13.38 0 30c0 16.62 13.38 30 30 30 16.62 0 30-13.38 30-30C60 13.38 46.62 0 30 0Zm7 10.832c.325-.01.62.34.428.695l-7.61 13.95a.466.466 0 0 0 .41.69h13.15c.425 0 .63.518.32.808l-23.05 21.512c-.413.386-1.026-.157-.695-.614l10.91-15.053a.467.467 0 0 0-.378-.74H16.567a.468.468 0 0 1-.327-.8l20.45-20.308a.45.45 0 0 1 .31-.14Z"/></g></g><defs><clipPath id="a"><path fill="#fff" d="M0 0h60v60H0z"/></clipPath></defs></svg>
